X:1
T:[ID 4-31r]
T:[ID 4-31r]
T:Bezeichnung standardisiert: Contratanz de Erbprinz; Engl. Conter Tantz
T:Urheber unbekannt Erstbeleg: 1767 (Datum in der schriftlichen Quelle) Datum in der hier transkribierten schriftlichen Quelle: 1773
C:Urheber unbekannt
C:Erstbeleg: 1767 (Datum in der schriftlichen Quelle)
C:Datum in der hier transkribierten schriftlichen Quelle: 1773
L:1/8
M:2/4
K:G
V:1 treble 
V:1
 d | d/c/B GB | B2 Ac | c2 B>d | d2 B2 | ecBA | A2 G2 | FDEC | D6 :: gdBG | gdBG | GABc | d2 g2 | %13
 B2 d2 | G2 A2 | BGAF | G4 :| !fermata!D2 E2 | DGFE | D2 E2 | DGFE | D2 E2 | DFGF | DccB | B2 A2 :: %25
 d2 d2 | dAFD | c2 c2 | cAFD | GABc | d2 g2 | B2 d2 | G2 A2 | BGAF | G4 :| %35

